svg/600/outlined/open_run-fill.svg

<svg xmlns="http://www.w3.org/2000/svg" width="48" height="48" viewBox="0 -960 960 960"><path d="m480-178.001 87.435-88 57.131 55.566L480-65.869 335.434-210.435l57.131-55.566 87.435 88ZM178.001-480l88 87.435-55.566 57.131L65.869-480l144.566-144.566 55.566 57.131-88 87.435Zm603.433 0-87.435-87.435 56.131-57.131L894.696-480 750.13-335.434l-56.131-57.131L781.434-480ZM480-781.434l-87.435 87.435-57.131-56.131L480-894.696 624.566-750.13l-57.131 56.131L480-781.434Z"/></svg>

<svg xmlns="http://www.w3.org/2000/svg" width="48" height="48" viewBox="0 -960 960 960"><path d="m480-178 87.43-88 57.14 55.57L480-65.87 335.43-210.43 392.57-266 480-178ZM178-480l88 87.43-55.57 57.14L65.87-480l144.56-144.57L266-567.43 178-480Zm603.43 0L694-567.43l56.13-57.14L894.7-480 750.13-335.43 694-392.57 781.43-480ZM480-781.43 392.57-694l-57.14-56.13L480-894.7l144.57 144.57L567.43-694 480-781.43Z"/></svg>
